src/assets/images/details/17.svg

<svg width="32" height="32" fill="none" xmlns="http://www.w3.org/2000/svg"><path d="M18.79 22.02c-.77 0-.77-.77-.77-.77v-3.23c0-1.1-.9-2-2-2s-2 .9-2 2V27.72c0 2.34 1.9 4.23 4.23 4.23h.53c2.34 0 4.23-1.9 4.23-4.23v-1.47c.01-2.33-1.71-4.23-4.22-4.23z" fill="url(#a)"/><path d="M18.245 21.817c-.225-.228-.225-.567-.225-.567v-3.23c0-1.1-.9-2-2-2s-2 .9-2 2v8.23C16.5 24 17 23.5 18.245 21.817z" fill="url(#b)"/><path d="M18.79 22.02c-.77 0-.77-.77-.77-.77v-3.23c0-1.1-.9-2-2-2s-2 .9-2 2V27.72c0 2.34 1.9 4.23 4.23 4.23h.53c2.34 0 4.23-1.9 4.23-4.23v-1.47c.01-2.33-1.71-4.23-4.22-4.23z" fill="url(#c)"/><defs><radialGradient id="a" cx="0" cy="0" r="1" gradientUnits="userSpaceOnUse" gradientTransform="matrix(-9 0 0 -18.5521 22 23)"><stop offset=".143" stop-color="#FFEA67"/><stop offset=".575" stop-color="#FFC13F"/><stop offset=".904" stop-color="#DF9030"/></radialGradient><radialGradient id="c" cx="0" cy="0" r="1" gradientUnits="userSpaceOnUse" gradientTransform="matrix(-3.99996 14.5 -20.31202 -5.60325 16 20)"><stop offset=".556" stop-color="#FFEA67" stop-opacity="0"/><stop offset=".794" stop-color="#F9708E"/></radialGradient><linearGradient id="b" x1="18.5" y1="20.5" x2="13.5" y2="21" gradientUnits="userSpaceOnUse"><stop offset=".143" stop-color="#FFEA67"/><stop offset="1" stop-color="#E09332" stop-opacity="0"/></linearGradient></defs></svg>

<svg width="32" height="32" viewBox="0 0 32 32" fill="none" xmlns="http://www.w3.org/2000/svg">
<path d="M18.79 22.02C18.02 22.02 18.02 21.25 18.02 21.25V18.02C18.02 16.92 17.12 16.02 16.02 16.02C14.92 16.02 14.02 16.92 14.02 18.02V26.25V27.72C14.02 30.06 15.92 31.95 18.25 31.95H18.78C21.12 31.95 23.01 30.05 23.01 27.72V26.25C23.02 23.92 21.3 22.02 18.79 22.02Z" fill="url(#paint0_radial_31_57)"/>
<path d="M18.2449 21.8171C18.02 21.5889 18.02 21.25 18.02 21.25V18.02C18.02 16.92 17.12 16.02 16.02 16.02C14.92 16.02 14.02 16.92 14.02 18.02V26.25C16.5 24 17 23.5 18.2449 21.8171Z" fill="url(#paint1_linear_31_57)"/>
<path d="M18.79 22.02C18.02 22.02 18.02 21.25 18.02 21.25V18.02C18.02 16.92 17.12 16.02 16.02 16.02C14.92 16.02 14.02 16.92 14.02 18.02V26.25V27.72C14.02 30.06 15.92 31.95 18.25 31.95H18.78C21.12 31.95 23.01 30.05 23.01 27.72V26.25C23.02 23.92 21.3 22.02 18.79 22.02Z" fill="url(#paint2_radial_31_57)"/>
<defs>
<radialGradient id="paint0_radial_31_57" cx="0" cy="0" r="1" gradientUnits="userSpaceOnUse" gradientTransform="translate(22 23) rotate(-180) scale(9 18.5521)">
<stop offset="0.143441" stop-color="#FFEA67"/>
<stop offset="0.574707" stop-color="#FFC13F"/>
<stop offset="0.904482" stop-color="#DF9030"/>
</radialGradient>
<linearGradient id="paint1_linear_31_57" x1="18.5" y1="20.5" x2="13.5" y2="21" gradientUnits="userSpaceOnUse">
<stop offset="0.143441" stop-color="#FFEA67"/>
<stop offset="1" stop-color="#E09332" stop-opacity="0"/>
</linearGradient>
<radialGradient id="paint2_radial_31_57" cx="0" cy="0" r="1" gradientUnits="userSpaceOnUse" gradientTransform="translate(16 20) rotate(105.422) scale(15.0416 21.0707)">
<stop offset="0.555608" stop-color="#FFEA67" stop-opacity="0"/>
<stop offset="0.793942" stop-color="#F9708E"/>
</radialGradient>
</defs>
</svg>
